<?xml version="1.0" encoding="UTF-8"?>
<map version="1.10" tiledversion="1.12.2" orientation="orthogonal" renderorder="right-down" width="30" height="20" tilewidth="16" tileheight="16" infinite="0" nextlayerid="2" nextobjectid="1">
<tileset firstgid="1" source="../Interior Tilesets.tsx"/>
 <layer id="1" name="Tile Layer 1" width="30" height="20">
  <data encoding="csv">
0,0,0,0,0,0,0,0,0,0,0,0,0,0,0,0,0,0,0,0,0,0,0,0,0,0,0,0,0,0,
0,0,0,0,0,0,0,0,0,0,0,0,0,0,0,0,0,0,0,0,0,0,0,0,0,0,0,0,0,0,
0,0,0,0,0,0,0,0,0,0,0,0,0,0,0,0,0,0,0,0,0,0,0,0,0,0,0,0,0,0,
0,0,0,0,0,0,0,0,0,0,0,0,0,0,0,0,0,0,0,0,0,0,0,0,0,0,0,0,0,0,
0,0,0,0,0,0,0,0,0,0,0,0,0,0,0,0,0,0,0,0,0,0,0,0,0,0,0,0,0,0,
0,0,0,0,0,0,0,0,361,362,2666,2667,364,364,364,1899,1900,364,365,366,367,368,0,0,0,0,0,0,0,0,
0,0,0,0,0,0,0,0,553,554,2858,2859,1897,939,940,2091,2092,1898,10265,558,559,560,0,0,0,0,0,0,0,0,
0,0,0,0,0,0,0,0,745,746,3050,3051,2089,1131,1132,1130,2284,2090,941,750,751,752,0,0,0,0,0,0,0,0,
0,0,0,0,0,0,0,0,937,943,1325,1705,2281,938,938,174,938,2282,1517,1705,1513,944,0,0,0,0,0,0,0,0,
0,0,0,0,0,0,0,0,937,1705,1705,1705,2480,2669,2670,2671,2669,2669,942,1705,1513,944,0,0,0,0,0,0,0,0,
0,0,0,0,0,0,0,0,3241,3242,1705,1705,1705,1321,1322,1323,1324,1705,1705,1705,1513,944,0,0,0,0,0,0,0,0,
0,0,0,0,0,0,0,0,3433,3434,1705,1705,1705,1513,1514,1515,1516,1705,1325,1518,1519,944,0,0,0,0,0,0,0,0,
0,0,0,0,0,0,0,0,3625,3626,1705,1705,1705,1705,1706,1707,1708,1705,943,1710,1711,944,0,0,0,0,0,0,0,0,
0,0,0,0,0,0,0,0,1129,1705,1705,1705,1705,1705,172,173,1705,1705,1705,943,1325,1328,0,0,0,0,0,0,0,0,
0,0,0,0,0,0,0,0,0,0,0,0,0,0,0,0,0,0,0,0,0,0,0,0,0,0,0,0,0,0,
0,0,0,0,0,0,0,0,0,0,0,0,0,0,0,0,0,0,0,0,0,0,0,0,0,0,0,0,0,0,
0,0,0,0,0,0,0,0,0,0,0,0,0,0,0,0,0,0,0,0,0,0,0,0,0,0,0,0,0,0,
0,0,0,0,0,0,0,0,0,0,0,0,0,0,0,0,0,0,0,0,0,0,0,0,0,0,0,0,0,0,
0,0,0,0,0,0,0,0,0,0,0,0,0,0,0,0,0,0,0,0,0,0,0,0,0,0,0,0,0,0,
0,0,0,0,0,0,0,0,0,0,0,0,0,0,0,0,0,0,0,0,0,0,0,0,0,0,0,0,0,0
</data>
 </layer>
</map>
