<?xml version="1.0" encoding="UTF-8"?>
<map version="1.10" tiledversion="1.12.1" orientation="orthogonal" renderorder="right-down" width="800" height="600" tilewidth="1" tileheight="1" infinite="0" nextlayerid="3" nextobjectid="71">
 <tileset firstgid="1" source="sprites/ui.tsx"/>
 <objectgroup id="2" name="ui">
  <object id="1" name="background" gid="23" x="0" y="600" width="800" height="599" visible="0"/>
  <object id="2" name="box" gid="1" x="9.72727" y="587.212" width="585" height="118.4"/>
  <object id="9" name="text" x="52.4394" y="490.5" width="483" height="74">
   <text wrap="1">Hello World</text>
  </object>
  <object id="3" name="pokemon1" gid="21" x="85" y="205" width="210.6" height="132.3"/>
  <object id="10" name="pokeball1" gid="19" x="64" y="104" width="54" height="54"/>
  <object id="11" name="pokemonSprite1" gid="12" x="66" y="125" width="72" height="72"/>
  <object id="12" name="hpText1" x="203.5" y="178.5" width="83" height="19">
   <text wrap="1">Hello World</text>
  </object>
  <object id="13" name="levelText1" x="127.5" y="132.5" width="83" height="19">
   <text wrap="1">Hello World</text>
  </object>
  <object id="15" name="nameText1" x="127.5" y="106.833" width="83" height="19">
   <text wrap="1">Hello World</text>
  </object>
  <object id="16" name="hpBar1" x="150.333" y="162" width="128" height="8"/>
  <object id="4" name="pokemon2" gid="24" x="373" y="97" width="383.4" height="59.4"/>
  <object id="23" name="pokeball2" gid="19" x="356.75" y="97.25" width="54" height="54"/>
  <object id="24" name="pokemonSprite2" gid="12" x="356.25" y="113.25" width="72" height="72"/>
  <object id="25" name="hpText2" x="659.083" y="74.25" width="83" height="19">
   <text wrap="1">Hello World</text>
  </object>
  <object id="26" name="levelText2" x="460.583" y="74.083" width="83" height="19">
   <text wrap="1">Hello World</text>
  </object>
  <object id="27" name="nameText2" x="460.583" y="51.083" width="83" height="19">
   <text wrap="1">Hello World</text>
  </object>
  <object id="28" name="hpBar2" x="611.416" y="58.75" width="128" height="8"/>
  <object id="6" name="pokemon4" gid="24" x="373" y="231" width="383.4" height="59.4"/>
  <object id="53" name="pokeball4" gid="19" x="356.917" y="231.084" width="54" height="54"/>
  <object id="54" name="pokemonSprite4" gid="12" x="356.417" y="247.084" width="72" height="72"/>
  <object id="55" name="hpText4" x="659.25" y="208.084" width="83" height="19">
   <text wrap="1">Hello World</text>
  </object>
  <object id="56" name="levelText4" x="460.75" y="207.916" width="83" height="19">
   <text wrap="1">Hello World</text>
  </object>
  <object id="57" name="nameText4" x="460.75" y="184.917" width="83" height="19">
   <text wrap="1">Hello World</text>
  </object>
  <object id="58" name="hpBar4" x="611.583" y="192.584" width="128" height="8"/>
  <object id="5" name="pokemon3" gid="24" x="373" y="164" width="383.4" height="59.4"/>
  <object id="47" name="pokeball3" gid="19" x="356.917" y="165.084" width="54" height="54"/>
  <object id="48" name="pokemonSprite3" gid="12" x="356.417" y="181.084" width="72" height="72"/>
  <object id="49" name="hpText3" x="659.25" y="142.084" width="83" height="19">
   <text wrap="1">Hello World</text>
  </object>
  <object id="50" name="levelText3" x="460.75" y="141.916" width="83" height="19">
   <text wrap="1">Hello World</text>
  </object>
  <object id="51" name="nameText3" x="460.75" y="118.916" width="83" height="19">
   <text wrap="1">Hello World</text>
  </object>
  <object id="52" name="hpBar3" x="611.583" y="126.584" width="128" height="8"/>
  <object id="7" name="pokemon5" gid="24" x="373" y="298" width="383.4" height="59.4"/>
  <object id="59" name="pokeball5" gid="19" x="358.917" y="298.417" width="54" height="54"/>
  <object id="60" name="pokemonSprite5" gid="12" x="358.417" y="314.417" width="72" height="72"/>
  <object id="61" name="hpText5" x="661.25" y="275.417" width="83" height="19">
   <text wrap="1">Hello World</text>
  </object>
  <object id="62" name="levelText5" x="462.75" y="275.25" width="83" height="19">
   <text wrap="1">Hello World</text>
  </object>
  <object id="63" name="nameText5" x="462.75" y="252.25" width="83" height="19">
   <text wrap="1">Hello World</text>
  </object>
  <object id="64" name="hpBar5" x="613.583" y="259.917" width="128" height="8"/>
  <object id="8" name="pokemon6" gid="24" x="373" y="365" width="383.4" height="59.4"/>
  <object id="65" name="pokeball6" gid="19" x="356.917" y="366.417" width="54" height="54"/>
  <object id="66" name="pokemonSprite6" gid="12" x="356.417" y="382.417" width="72" height="72"/>
  <object id="67" name="hpText6" x="659.25" y="343.417" width="83" height="19">
   <text wrap="1">Hello World</text>
  </object>
  <object id="68" name="levelText6" x="460.75" y="343.25" width="83" height="19">
   <text wrap="1">Hello World</text>
  </object>
  <object id="69" name="nameText6" x="460.75" y="320.25" width="83" height="19">
   <text wrap="1">Hello World</text>
  </object>
  <object id="70" name="hpBar6" x="611.583" y="327.917" width="128" height="8"/>
 </objectgroup>
</map>
