<?xml version="1.0" encoding="UTF-8"?>
<map version="1.10" tiledversion="1.12.1" orientation="orthogonal" renderorder="right-down" width="800" height="600" tilewidth="1" tileheight="1" infinite="0" nextlayerid="7" nextobjectid="28">
 <tileset firstgid="1" source="sprites/ui.tsx"/>
 <objectgroup id="2" name="pokemon_profile">
  <object id="9" name="ability_description" x="297.167" y="343.833" width="467" height="40.3333">
   <text wrap="1">Hello World</text>
  </object>
  <object id="10" name="abylity_name" x="289.167" y="289.167" width="491" height="37.6667">
   <text wrap="1">Hello World</text>
  </object>
  <object id="8" name="type" x="298.5" y="195.833" width="467" height="43">
   <text wrap="1">Hello World</text>
  </object>
  <object id="27" name="name" x="298.5" y="143.5" width="467" height="43">
   <text wrap="1">Hello World</text>
  </object>
 </objectgroup>
 <objectgroup id="5" name="pokemon_stats" visible="0">
  <object id="20" name="exp_needed_count" x="583.833" y="495.833" width="188.333" height="25.6667">
   <text wrap="1">Hello World</text>
  </object>
  <object id="18" name="exp_needed" x="302.5" y="487.833" width="231" height="29.6667">
   <text wrap="1">Hello World</text>
  </object>
  <object id="19" name="exp_count" x="586.5" y="435.833" width="189.667" height="29.6667">
   <text wrap="1">Hello World</text>
  </object>
  <object id="17" name="exp" x="299.833" y="437.167" width="232.333" height="33.6667">
   <text wrap="1">Hello World</text>
  </object>
  <object id="24" name="SPD" x="601.833" y="353.167" width="181.333" height="28.3337">
   <text wrap="1">Hello World</text>
  </object>
  <object id="25" name="SP.DEF" x="601.833" y="293.167" width="181.333" height="28.3337">
   <text wrap="1">Hello World</text>
  </object>
  <object id="26" name="SP.ATK" x="601.833" y="233.167" width="181.333" height="28.3337">
   <text wrap="1">Hello World</text>
  </object>
  <object id="22" name="DEF" x="294.5" y="353.167" width="276.333" height="28.3337">
   <text wrap="1">Hello World</text>
  </object>
  <object id="23" name="ATK" x="294.5" y="293.167" width="276.333" height="28.3337">
   <text wrap="1">Hello World</text>
  </object>
  <object id="21" name="HP" x="294.5" y="233.167" width="276.333" height="28.3337">
   <text wrap="1">Hello World</text>
  </object>
  <object id="16" name="ribbon" x="619.833" y="154.5" width="83" height="19">
   <text wrap="1">Hello World</text>
  </object>
  <object id="15" name="item" x="299.833" y="145.167" width="208.333" height="33.6667">
   <text wrap="1">Hello World</text>
  </object>
 </objectgroup>
 <objectgroup id="6" name="pokemo_moves"/>
 <objectgroup id="3" name="profile">
  <object id="14" name="profile" gid="27" x="0.98217" y="600.701" width="265.369" height="527.931"/>
  <object id="11" name="pokemon_level" x="32.0567" y="440.951" width="197.667" height="44.3333">
   <text wrap="1">Hello World</text>
  </object>
  <object id="12" name="pokemon_name" x="32.0567" y="370.951" width="197.667" height="44.3333">
   <text wrap="1">Hello World</text>
  </object>
  <object id="13" name="pokemon" gid="12" x="66.2234" y="309.785" width="144" height="144"/>
 </objectgroup>
 <objectgroup id="4" name="static">
  <object id="3" name="bar" gid="30" x="-0.666667" y="72.6667" width="802.667" height="72"/>
  <object id="2" name="bg" gid="29" x="263.641" y="600.167" width="535.74" height="507.187"/>
 </objectgroup>
</map>
