<?xml version="1.0" encoding="UTF-8"?>
<map version="1.10" tiledversion="1.12.1" orientation="orthogonal" renderorder="right-down" width="20" height="20" tilewidth="16" tileheight="16" infinite="0" nextlayerid="6" nextobjectid="4">
 <tileset firstgid="1" source="../tilesets/locations/interior_ares.tsx"/>
 <layer id="1" name="walkable" width="20" height="20">
  <data encoding="csv">
0,0,0,0,0,0,0,0,0,0,0,0,0,0,0,0,0,0,0,0,
0,0,0,0,0,0,0,0,0,0,0,0,0,0,0,0,0,0,0,0,
0,0,0,0,0,0,0,0,0,0,0,0,0,0,0,0,0,0,0,0,
0,0,0,0,0,0,0,0,0,0,0,0,0,0,0,0,0,0,0,0,
0,0,0,2069,2070,2071,2072,2073,2074,2075,2076,2077,2078,2079,2080,2081,0,0,0,0,
0,0,0,2189,2190,2191,2192,2193,2194,2195,2196,2197,2198,2199,2200,2201,0,0,0,0,
0,0,0,2309,2310,2311,2312,2313,2314,2315,2316,2317,2318,2319,2320,2321,0,0,0,0,
0,0,0,2429,2430,2431,2432,2433,2434,2435,2436,2437,2438,2439,2440,2441,0,0,0,0,
0,0,0,2549,2550,2551,2552,2553,2554,2555,2556,2557,2558,2559,2560,2561,0,0,0,0,
0,0,0,2669,2670,2671,2672,2673,2674,2675,2676,2677,2678,2679,2680,2681,0,0,0,0,
0,0,0,2789,2790,2791,2792,2793,2794,2795,2796,2797,2798,2799,2800,2801,0,0,0,0,
0,0,0,2909,2910,2911,2912,2913,2914,2915,2916,2917,2918,2919,2920,2921,0,0,0,0,
0,0,0,3029,3030,3031,3032,3033,3034,3035,3036,3037,3038,3039,3040,3041,0,0,0,0,
0,0,0,3149,3150,3151,3152,3153,3154,3155,3156,3157,3158,3159,3160,3161,0,0,0,0,
0,0,0,0,0,0,0,0,0,0,0,0,0,0,0,0,0,0,0,0,
0,0,0,0,0,0,0,0,0,0,0,0,0,0,0,0,0,0,0,0,
0,0,0,0,0,0,0,0,0,0,0,0,0,0,0,0,0,0,0,0,
0,0,0,0,0,0,0,0,0,0,0,0,0,0,0,0,0,0,0,0,
0,0,0,0,0,0,0,0,0,0,0,0,0,0,0,0,0,0,0,0,
0,0,0,0,0,0,0,0,0,0,0,0,0,0,0,0,0,0,0,0
</data>
 </layer>
 <layer id="2" name="collision" width="20" height="20">
  <data encoding="csv">
0,0,0,0,0,0,0,0,0,0,0,0,0,0,0,0,0,0,0,0,
0,0,0,0,0,0,0,0,0,0,0,0,0,0,0,0,0,0,0,0,
0,0,0,0,0,0,0,0,0,0,0,0,0,0,0,0,0,0,0,0,
0,0,0,0,0,0,0,0,0,0,0,0,0,0,0,0,0,0,0,0,
0,0,0,2069,2070,2071,2072,2073,2074,2075,2076,2077,2078,2079,2080,2081,0,0,0,0,
0,0,0,2189,2190,2191,2192,2193,2194,2195,2196,2197,2198,2199,2200,2201,0,0,0,0,
0,0,0,2309,2310,2311,2312,0,0,0,2316,2317,2318,2319,2320,2321,0,0,0,0,
0,0,0,2429,2430,2431,2432,0,0,0,0,0,0,0,2440,2441,0,0,0,0,
0,0,0,2549,2550,2551,2552,0,0,0,2556,2557,0,0,2560,2561,0,0,0,0,
0,0,0,2669,0,0,0,0,0,0,2676,2677,0,0,2680,2681,0,0,0,0,
0,0,0,2789,0,0,0,0,0,0,2796,2797,0,0,2800,2801,0,0,0,0,
0,0,0,2909,0,0,0,0,0,0,0,0,0,0,2920,2921,0,0,0,0,
0,0,0,3029,3030,3031,3032,3033,3034,3035,3036,3037,3038,3039,3040,3041,0,0,0,0,
0,0,0,3149,3150,3151,3152,3153,3154,3155,3156,3157,3158,3159,3160,3161,0,0,0,0,
0,0,0,0,0,0,0,0,0,0,0,0,0,0,0,0,0,0,0,0,
0,0,0,0,0,0,0,0,0,0,0,0,0,0,0,0,0,0,0,0,
0,0,0,0,0,0,0,0,0,0,0,0,0,0,0,0,0,0,0,0,
0,0,0,0,0,0,0,0,0,0,0,0,0,0,0,0,0,0,0,0,
0,0,0,0,0,0,0,0,0,0,0,0,0,0,0,0,0,0,0,0,
0,0,0,0,0,0,0,0,0,0,0,0,0,0,0,0,0,0,0,0
</data>
 </layer>
 <objectgroup id="4" name="transitions">
  <object id="1" gid="3034" x="128" y="208" width="16" height="16">
   <properties>
    <property name="destination map" value="littleroot_town"/>
    <property name="x" type="int" value="3375"/>
    <property name="y" type="int" value="1878"/>
   </properties>
  </object>
  <object id="2" gid="3033" x="112.125" y="207.875" width="16" height="16">
   <properties>
    <property name="destination map" value="littleroot_town"/>
    <property name="x" type="int" value="3375"/>
    <property name="y" type="int" value="1878"/>
   </properties>
  </object>
 </objectgroup>
 <objectgroup id="5" name="npc">
  <object id="3" gid="2432" x="79.5625" y="128.438" width="16" height="16">
   <properties>
    <property name="npc_id" value="npc"/>
   </properties>
  </object>
 </objectgroup>
 <layer id="3" name="bush" width="20" height="20">
  <data encoding="csv">
0,0,0,0,0,0,0,0,0,0,0,0,0,0,0,0,0,0,0,0,
0,0,0,0,0,0,0,0,0,0,0,0,0,0,0,0,0,0,0,0,
0,0,0,0,0,0,0,0,0,0,0,0,0,0,0,0,0,0,0,0,
0,0,0,0,0,0,0,0,0,0,0,0,0,0,0,0,0,0,0,0,
0,0,0,0,0,0,0,0,0,0,0,0,0,0,0,0,0,0,0,0,
0,0,0,0,0,0,0,0,0,0,0,0,0,0,0,0,0,0,0,0,
0,0,0,0,0,0,0,0,0,0,0,0,0,0,0,0,0,0,0,0,
0,0,0,0,0,0,0,0,0,0,0,0,0,0,0,0,0,0,0,0,
0,0,0,0,0,0,0,0,0,0,0,0,0,0,0,0,0,0,0,0,
0,0,0,0,0,0,0,0,0,0,0,0,0,0,0,0,0,0,0,0,
0,0,0,0,0,0,0,0,0,0,0,0,0,0,0,0,0,0,0,0,
0,0,0,0,0,0,0,0,0,0,0,0,0,0,0,0,0,0,0,0,
0,0,0,0,0,0,0,0,0,0,0,0,0,0,0,0,0,0,0,0,
0,0,0,0,0,0,0,0,0,0,0,0,0,0,0,0,0,0,0,0,
0,0,0,0,0,0,0,0,0,0,0,0,0,0,0,0,0,0,0,0,
0,0,0,0,0,0,0,0,0,0,0,0,0,0,0,0,0,0,0,0,
0,0,0,0,0,0,0,0,0,0,0,0,0,0,0,0,0,0,0,0,
0,0,0,0,0,0,0,0,0,0,0,0,0,0,0,0,0,0,0,0,
0,0,0,0,0,0,0,0,0,0,0,0,0,0,0,0,0,0,0,0,
0,0,0,0,0,0,0,0,0,0,0,0,0,0,0,0,0,0,0,0
</data>
 </layer>
</map>
