<?xml version="1.0" encoding="UTF-8"?>
<map version="1.10" tiledversion="1.12.2" orientation="orthogonal" renderorder="right-down" width="10" height="20" tilewidth="16" tileheight="16" infinite="1" nextlayerid="3" nextobjectid="14">
 <tileset firstgid="1" source="Tiles.tsx"/>
 <layer id="1" name="Tile Layer 1" width="10" height="20">
  <data encoding="csv">
   <chunk x="-16" y="-16" width="16" height="16">
0,0,0,0,0,0,0,0,0,0,0,0,0,0,0,0,
0,0,0,0,0,0,0,0,0,0,0,0,0,0,0,0,
0,0,0,0,0,0,0,0,0,0,0,0,0,0,0,0,
0,0,0,0,0,0,0,0,0,0,0,0,0,0,0,0,
0,0,0,0,0,0,0,0,0,0,0,0,0,0,0,0,
0,0,0,0,0,0,0,0,0,0,0,0,0,0,0,0,
0,0,0,0,0,0,0,0,0,0,0,0,0,0,0,0,
0,0,0,0,0,0,0,0,0,0,0,0,0,0,0,0,
0,0,0,0,0,0,0,0,0,0,0,0,0,0,0,0,
0,0,0,0,0,0,0,0,0,0,0,0,0,0,0,0,
0,0,0,0,0,0,0,0,0,0,0,0,0,0,0,0,
0,0,0,0,0,0,0,0,0,0,0,0,0,0,0,0,
0,0,0,0,0,0,0,0,0,0,0,0,0,0,0,0,
0,0,0,0,0,0,0,0,0,0,0,0,0,0,0,0,
0,0,0,0,0,0,5111,5112,2,2,2,2,2,2,2,2,
0,0,0,0,0,0,5285,5286,2,2,2,2,2,2,2,2
</chunk>
   <chunk x="0" y="-16" width="16" height="16">
0,0,0,0,0,0,0,0,0,0,0,0,0,0,0,0,
0,0,0,0,0,0,0,0,0,0,0,0,0,0,0,0,
0,0,0,0,0,0,0,0,0,0,0,0,0,0,0,0,
0,0,0,0,0,0,0,0,0,0,0,0,0,0,0,0,
0,0,0,0,0,0,0,0,0,0,0,0,0,0,0,0,
0,0,0,0,0,0,0,0,0,0,0,0,0,0,0,0,
0,0,0,0,0,0,0,0,0,0,0,0,0,0,0,0,
0,0,0,0,0,0,0,0,0,0,0,0,0,0,0,0,
0,0,0,0,0,0,0,0,0,0,0,0,0,0,0,0,
0,0,0,0,0,0,0,0,0,0,0,0,0,0,0,0,
0,0,0,0,0,0,0,0,0,0,0,0,0,0,0,0,
0,0,0,0,0,0,0,0,0,0,0,0,0,0,0,0,
0,0,0,0,0,0,0,0,0,0,0,0,0,0,0,0,
0,0,0,0,0,0,0,0,0,0,0,0,0,0,0,0,
2,2,2,2,2,2,2,2,5111,5112,0,0,0,0,0,0,
2,2,2,2,2,2,2,2,5285,5286,0,0,0,0,0,0
</chunk>
   <chunk x="-16" y="0" width="16" height="16">
0,0,0,0,0,0,2,2,105,106,106,106,107,2,2,2,
0,0,0,0,0,0,2,2,193,194,194,194,195,2,2,2,
0,0,0,0,0,0,2,2,281,282,282,282,283,2,2,2,
0,0,0,0,0,0,2,2,371,547,545,721,370,2,2,2,
0,0,0,0,0,0,5,2,459,635,633,809,458,4,2,2,
0,0,0,0,0,0,2,5,2,2,2,18,2,2,2,2,
0,0,0,0,0,0,5,2,2,5,2,2,2,2,2,2,
0,0,0,0,0,0,2,2,2,2,2,2,2,2,2,2,
0,0,0,0,0,0,2,2,2,109,723,724,110,110,110,111,
0,0,0,0,0,0,2,2,2,197,811,812,198,198,198,199,
0,0,0,0,0,0,2,2,2,197,198,198,198,198,198,199,
0,0,0,0,0,0,2,2,2,287,112,112,461,722,462,461,
0,0,0,0,0,0,2,2,2,375,200,200,549,810,550,549,
0,0,0,0,0,0,5023,5024,2,5,5,5,4,18,2,2,
0,0,0,0,0,0,5111,5112,2,5,5,5,2,2,2,2,
0,0,0,0,0,0,5199,5200,5023,5024,5023,5024,5023,5024,5023,5024
</chunk>
   <chunk x="0" y="0" width="16" height="16">
2,2,2,105,106,106,106,107,2,2,0,0,0,0,0,0,
2,2,2,193,194,194,194,195,2,2,0,0,0,0,0,0,
2,2,2,281,282,282,282,283,2,2,0,0,0,0,0,0,
2,2,2,369,721,546,547,372,2,5,0,0,0,0,0,0,
2,2,4,457,809,634,635,460,5,2,0,0,0,0,0,0,
2,2,2,2,18,2,2,2,2,5,0,0,0,0,0,0,
2,2,2,2,2,2,5,2,5,2,0,0,0,0,0,0,
2,2,2,2,2,2,2,2,2,2,0,0,0,0,0,0,
2,2,2,2,2,2,2,2,2,2,0,0,0,0,0,0,
2,2,2,2,2,4,2,2,2,2,0,0,0,0,0,0,
2,2,2,2,2,2,2,2,2,2,0,0,0,0,0,0,
2,2,2,2,2,2,2,2,5023,5024,0,0,0,0,0,0,
2,2,2,2,2,2,2,2,5111,5112,0,0,0,0,0,0,
2,2,2,2,2,2,5023,5024,5199,5200,0,0,0,0,0,0,
2,2,2,2,2,2,5111,5112,5111,5112,0,0,0,0,0,0,
5023,5024,5023,5024,5023,5024,5199,5200,5199,5200,0,0,0,0,0,0
</chunk>
  </data>
 </layer>
 <objectgroup id="2" name="obstacles">
  <object id="1" x="-157.667" y="-31" width="28.3333" height="30"/>
  <object id="2" x="129" y="-31.6667" width="30.3333" height="32"/>
  <object id="3" x="80.25" y="144.25" width="15.125" height="15.625"/>
  <object id="4" x="32.375" y="64.125" width="15" height="15.875"/>
  <object id="5" x="-47.875" y="64.5" width="15.25" height="15.125"/>
  <object id="6" x="128.625" y="188.375" width="31.5" height="68.125"/>
  <object id="7" x="96.875" y="220.625" width="32" height="35.5"/>
  <object id="8" x="-160" y="219.875" width="31.875" height="36.375"/>
  <object id="9" x="-63.75" y="208.25" width="15.125" height="15.625"/>
  <object id="10" x="-111.875" y="129" width="111.875" height="78.75"/>
  <object id="11" x="-119.625" y="1.125">
   <polygon points="0,0 63,0.125 63.25,15.625 71.375,15.5 71.625,78.375 -6.125,78.75 -5.875,52 -8.125,51.875 -8.375,16.5 0.125,16.25"/>
  </object>
  <object id="13" x="56.375" y="1.375">
   <polygon points="0,0 63,0.125 63.25,15.625 71.375,15.5 71.625,78.375 -6.125,78.75 -5.875,52 -8.125,51.875 -8.375,16.5 0.125,16.25"/>
  </object>
 </objectgroup>
</map>
