<?xml version="1.0" encoding="UTF-8"?>
<map version="1.10" tiledversion="1.12.2" orientation="orthogonal" renderorder="right-down" width="10" height="20" tilewidth="16" tileheight="16" infinite="1" nextlayerid="3" nextobjectid="23">
 <tileset firstgid="1" source="tilesets/locations/full_map.tsx"/>
 <layer id="1" name="Tile Layer 1" width="10" height="20">
  <data encoding="csv">
   <chunk x="-16" y="-16" width="16" height="16">
0,0,0,0,0,0,0,0,0,0,0,0,0,0,0,0,
0,0,0,0,0,0,0,0,0,0,0,0,0,0,0,0,
0,0,0,0,0,0,0,0,0,0,0,0,0,0,0,0,
0,0,0,0,0,0,0,0,0,0,0,0,0,0,0,0,
0,0,0,0,0,0,370850,370851,370852,370853,370854,370855,370856,370857,370858,370859,
0,0,0,0,0,0,371874,371875,371876,371877,371878,371879,371880,371881,371882,371883,
0,0,0,0,0,0,372898,372899,372900,372901,372902,372903,372904,372905,372906,372907,
0,0,0,0,0,0,373922,373923,373924,373925,373926,373927,373928,373929,373930,373931,
0,0,0,0,0,0,374946,374947,374948,374949,374950,374951,374952,374953,374954,374955,
0,0,0,0,0,0,375970,375971,375972,375973,375974,375975,375976,375977,375978,375979,
0,0,0,0,0,0,376994,376995,376996,376997,376998,376999,377000,377001,377002,377003,
0,0,0,0,0,0,378018,378019,378020,378021,378022,378023,378024,378025,378026,378027,
0,0,0,0,0,0,379042,379043,379044,379045,379046,379047,379048,379049,379050,379051,
0,0,0,0,0,0,380066,380067,380068,380069,380070,380071,380072,380073,383149,380075,
0,0,0,0,0,0,381090,381091,381092,381093,381094,381095,381096,381097,383149,381099,
0,0,0,0,0,0,382114,382115,382116,382117,382118,382119,382120,382121,382122,382123
</chunk>
   <chunk x="0" y="-16" width="16" height="16">
0,0,0,0,0,0,0,0,0,0,0,0,0,0,0,0,
0,0,0,0,0,0,0,0,0,0,0,0,0,0,0,0,
0,0,0,0,0,0,0,0,0,0,0,0,0,0,0,0,
0,0,0,0,0,0,0,0,0,0,0,0,0,0,0,0,
370860,370861,370862,370863,370864,370865,370866,370867,370868,370869,370870,0,0,0,0,0,
371884,371885,371886,371887,371888,371889,371890,371891,371892,371893,371894,0,0,0,0,0,
372908,372909,372910,372911,372912,372913,372914,372915,372916,372917,372918,0,0,0,0,0,
373932,373933,373934,373935,373936,373937,373938,373939,373940,373941,373942,0,0,0,0,0,
374956,374957,374958,374959,374960,374961,374962,374963,374964,374965,374966,0,0,0,0,0,
375980,375981,375982,375983,375984,375985,375986,375987,375988,375989,375990,0,0,0,0,0,
377004,377005,377006,377007,377008,377009,377010,377011,377012,377013,377014,0,0,0,0,0,
378028,378029,378030,378031,378032,378033,378034,378035,378036,378037,378038,0,0,0,0,0,
379052,379053,379054,382127,382128,379057,379058,379059,379060,379061,379062,0,0,0,0,0,
380076,380077,380078,380079,380080,380081,380082,380083,380084,380085,380086,0,0,0,0,0,
381100,381101,381102,381103,381104,381105,381106,381107,381108,381109,381110,0,0,0,0,0,
382124,382125,382126,382127,382128,381104,381105,385199,382132,382133,382134,0,0,0,0,0
</chunk>
   <chunk x="-16" y="0" width="16" height="16">
0,0,0,0,0,0,383138,383139,383140,383141,383142,383143,383144,383145,383146,383147,
0,0,0,0,0,0,384162,384163,384164,384165,384166,384167,384168,384169,384170,384171,
0,0,0,0,0,0,385186,385187,385188,385189,385190,385191,385192,385193,385194,385195,
0,0,0,0,0,0,386210,386211,386212,386213,386214,386215,386216,386217,386218,386219,
0,0,0,0,0,0,387234,387235,387236,387237,387238,387239,387240,387241,387242,387243,
0,0,0,0,0,0,388258,388259,388260,388261,388262,388263,388264,388265,388266,388267,
0,0,0,0,0,0,389282,389283,389284,389285,389286,389287,389288,389289,389290,389291,
0,0,0,0,0,0,390306,390307,390308,390309,390310,390311,390312,390313,390314,390315,
0,0,0,0,0,0,391330,391331,391332,391333,391334,391335,391336,391337,391338,391339,
0,0,0,0,0,0,392354,392355,392356,392357,392358,392359,392360,392361,392362,392363,
0,0,0,0,0,0,0,0,0,0,0,0,0,0,0,0,
0,0,0,0,0,0,0,0,0,0,0,0,0,0,0,0,
0,0,0,0,0,0,0,0,0,0,0,0,0,0,0,0,
0,0,0,0,0,0,0,0,0,0,0,0,0,0,0,0,
0,0,0,0,0,0,0,0,0,0,0,0,0,0,0,0,
0,0,0,0,0,0,0,0,0,0,0,0,0,0,0,0
</chunk>
   <chunk x="0" y="0" width="16" height="16">
383148,383149,383150,383151,383152,383153,383142,388271,383156,383157,383158,0,0,0,0,0,
384172,384173,384174,384175,384176,384177,384178,384179,384180,384181,384182,0,0,0,0,0,
385196,385197,385198,385199,385200,385201,385202,385203,385204,385205,385206,0,0,0,0,0,
386220,386221,386222,386223,386224,386225,386226,386227,386228,386229,386230,0,0,0,0,0,
387244,387245,387246,387247,387248,387249,387250,387251,387252,387253,387254,0,0,0,0,0,
388268,388269,388270,388271,388272,388273,388274,388275,388276,388277,388278,0,0,0,0,0,
389292,389293,389294,389295,389296,389297,389298,389299,389300,389301,389302,0,0,0,0,0,
390316,390317,390318,390319,390320,390321,390322,390323,390324,390325,390326,0,0,0,0,0,
391340,391341,391342,391343,391344,391345,391346,391347,391348,391349,391350,0,0,0,0,0,
392364,392365,392366,392367,392368,392369,392370,392371,392372,392373,392374,0,0,0,0,0,
0,0,0,0,0,0,0,0,0,0,0,0,0,0,0,0,
0,0,0,0,0,0,0,0,0,0,0,0,0,0,0,0,
0,0,0,0,0,0,0,0,0,0,0,0,0,0,0,0,
0,0,0,0,0,0,0,0,0,0,0,0,0,0,0,0,
0,0,0,0,0,0,0,0,0,0,0,0,0,0,0,0,
0,0,0,0,0,0,0,0,0,0,0,0,0,0,0,0
</chunk>
  </data>
 </layer>
 <objectgroup id="2" name="obstacles">
  <object id="1" x="-160" y="-193.5" width="69.5" height="76.5"/>
  <object id="2" x="-160.625" y="-117" width="41.75" height="92.25"/>
  <object id="3" x="-90.25" y="-192.375" width="67.375" height="41.5"/>
  <object id="4" x="46" y="-192.5" width="130.625" height="42.375"/>
  <object id="5" x="108.125" y="-150.5" width="61.875" height="32.375"/>
  <object id="6" x="141.375" y="-118.5" width="27.5" height="63.625"/>
  <object id="9" x="65.375" y="-123.375">
   <polygon points="0,0 48.75,-0.5 51.375,2 56.375,7 56.425,49.1083 50.1806,54.9306 -0.708333,54.7083 -7.06389,48.9306 -6.975,6.55278"/>
  </object>
  <object id="10" x="-85.8182" y="-114.909">
   <polygon points="0,0 63.4545,0.181818 63.6364,61.4545 2.54545,62.3636"/>
  </object>
  <object id="11" x="26" y="-35.8182">
   <polygon points="0,0 15.9091,-0.0909091 15.9091,15.6364 -0.0909091,15.6364"/>
  </object>
  <object id="14" x="-62.6364" y="36.3636">
   <polygon points="0,0 7.81818,0 14.6364,-5.90909 16.3636,-6.09091 17,-7.27273 18.6364,-7.09091 20.2727,-8.36364 29.8182,-8.18182 29.8182,-6.45455 32.3636,-6.81818 32.4545,-5.72727 34.0909,-5.81818 36.5455,-3.36364 38.0909,-3.36364 39,-1.90909 40.3636,-0.727273 40.9091,0.181818 49.0909,-0.363636 56.3636,7.27273 56.5455,49.2727 50.0909,54.8182 -0.545455,54.9091 -7.18182,48.8182 -7,6.81818"/>
  </object>
  <object id="15" x="-161.333" y="9" width="41.6667" height="149.667"/>
  <object id="16" x="-119.333" y="75.6667" width="31.6667" height="83.3333"/>
  <object id="17" x="-88.6667" y="140" width="64" height="19"/>
  <object id="18" x="41.3333" y="136" width="127.667" height="24"/>
  <object id="19" x="108.667" y="107" width="61.3333" height="29"/>
  <object id="21" x="138.333" y="11.6667" width="31.6667" height="94.3333"/>
 </objectgroup>
</map>
