<?xml version="1.0" encoding="UTF-8"?>
<map version="1.10" tiledversion="1.12.2" orientation="orthogonal" renderorder="right-down" width="10" height="20" tilewidth="16" tileheight="16" infinite="1" nextlayerid="3" nextobjectid="16">
 <tileset firstgid="1" source="Tiles.tsx"/>
 <tileset firstgid="6073" source="tilesets/locations/full_map.tsx"/>
 <layer id="1" name="Tile Layer 1" width="10" height="20">
  <data encoding="csv">
   <chunk x="0" y="0" width="16" height="16">
0,0,0,0,0,0,0,0,0,0,0,0,0,0,0,0,
0,0,0,0,0,0,0,0,0,0,0,0,0,0,0,0,
0,0,0,0,0,0,0,0,0,0,0,0,0,0,0,0,
0,0,0,0,0,0,0,0,0,0,0,0,0,0,0,0,
0,0,0,0,0,0,0,0,0,0,0,0,0,0,0,0,
0,0,0,0,0,0,0,0,0,0,0,0,0,0,5109,5110,
0,0,0,0,0,0,0,0,0,0,0,0,0,0,5199,5200,
0,0,0,0,0,0,0,0,0,0,0,0,0,0,5109,5110,
0,0,0,0,0,0,0,0,0,0,0,0,0,0,5287,5288,
0,0,0,0,0,0,0,0,0,0,0,0,0,0,94,94,
0,0,0,0,0,0,0,0,0,0,0,0,0,0,4935,4936,
0,0,0,0,0,0,0,0,0,0,0,0,0,0,5109,5110,
0,0,0,0,0,0,0,0,0,0,0,0,0,0,5199,5200,
0,0,0,0,0,0,0,0,0,0,0,0,0,0,5109,5110,
0,0,0,0,0,0,0,0,0,0,0,0,0,0,5199,5200,
0,0,0,0,0,0,0,0,0,0,0,0,0,0,5109,5110
</chunk>
   <chunk x="16" y="0" width="16" height="16">
0,0,0,0,0,0,0,0,0,0,0,0,0,0,0,0,
0,0,0,0,0,0,0,0,0,0,0,0,0,0,0,0,
0,0,0,0,0,0,0,0,0,0,0,0,0,0,0,0,
0,0,0,0,0,0,0,0,0,0,0,0,0,0,0,0,
0,0,0,0,0,0,0,0,0,0,0,0,0,0,0,0,
5109,5110,5109,5110,5109,5110,5193,5194,5195,2,5109,5110,5109,5110,5111,5112,
5287,5288,5287,5288,5287,5288,5281,5282,5283,2,5287,5288,5287,5288,5199,5200,
94,94,94,2,2,2,2,2,2,2,2,94,94,94,5111,5112,
94,94,94,94,2,2,2,2,2,2,94,94,94,94,5287,5288,
94,94,94,94,2,2,2,2,2,2,94,94,94,94,94,94,
94,94,94,2,2,2,2,2,2,5023,4936,94,94,94,94,94,
94,94,2,2,2,1416,1416,1416,2295,5111,5112,4935,4936,94,94,2,
2294,1416,1416,1416,1503,2,2,2,2,5199,5200,5109,5110,2,5105,5106,
5023,5024,2,2,2,2,2,2,2,5109,5110,5287,5288,2,5193,5194,
5109,5110,2,4,2,5105,5106,5106,5107,5287,5288,94,94,2,5281,5194,
5199,5200,2,5105,5106,5194,5194,5194,5195,94,94,94,94,94,2,5281
</chunk>
   <chunk x="32" y="0" width="16" height="16">
0,0,0,0,0,0,0,0,0,0,0,0,0,0,0,0,
0,0,0,0,0,0,0,0,0,0,0,0,0,0,0,0,
0,0,0,0,0,0,0,0,0,0,0,0,0,0,0,0,
0,0,0,0,0,0,0,0,0,0,0,0,0,0,0,0,
0,0,0,0,0,0,0,0,0,0,0,0,0,0,0,0,
5111,5112,0,0,0,0,0,0,0,0,0,0,0,0,0,0,
5199,5200,0,0,0,0,0,0,0,0,0,0,0,0,0,0,
5111,5112,0,0,0,0,0,0,0,0,0,0,0,0,0,0,
5199,5200,0,0,0,0,0,0,0,0,0,0,0,0,0,0,
5111,5112,0,0,0,0,0,0,0,0,0,0,0,0,0,0,
5287,5288,0,0,0,0,0,0,0,0,0,0,0,0,0,0,
2,2,0,0,0,0,0,0,0,0,0,0,0,0,0,0,
5106,5107,0,0,0,0,0,0,0,0,0,0,0,0,0,0,
5194,5195,0,0,0,0,0,0,0,0,0,0,0,0,0,0,
5194,5195,0,0,0,0,0,0,0,0,0,0,0,0,0,0,
5194,5195,0,0,0,0,0,0,0,0,0,0,0,0,0,0
</chunk>
   <chunk x="0" y="16" width="16" height="16">
0,0,0,0,0,0,0,0,0,0,0,0,0,0,5199,5200,
0,0,0,0,0,0,0,0,0,0,0,0,0,0,5109,5110,
0,0,0,0,0,0,0,0,0,0,0,0,0,0,5287,5288,
0,0,0,0,0,0,0,0,0,0,0,0,0,0,94,94,
0,0,0,0,0,0,0,0,0,0,0,0,0,0,4935,4936,
0,0,0,0,0,0,0,0,0,0,0,0,0,0,5111,5112,
0,0,0,0,0,0,0,0,0,0,0,0,0,0,5199,5200,
0,0,0,0,0,0,0,0,0,0,0,0,0,0,5111,5112,
0,0,0,0,0,0,0,0,0,0,0,0,0,0,5199,5200,
0,0,0,0,0,0,0,0,0,0,0,0,0,0,5111,5112,
0,0,0,0,0,0,0,0,0,0,0,0,0,0,5199,5200,
0,0,0,0,0,0,0,0,0,0,0,0,0,0,0,0,
0,0,0,0,0,0,0,0,0,0,0,0,0,0,0,0,
0,0,0,0,0,0,0,0,0,0,0,0,0,0,0,0,
0,0,0,0,0,0,0,0,0,0,0,0,0,0,0,0,
0,0,0,0,0,0,0,0,0,0,0,0,0,0,0,0
</chunk>
   <chunk x="16" y="16" width="16" height="16">
5109,5110,2,5193,5194,5194,5194,5194,5283,94,94,94,94,94,94,2,
5287,5288,2,5281,5282,5282,5282,5283,2,94,94,94,94,94,94,2,
94,94,2,2,2,2,2,2294,1416,2295,4935,4936,94,94,94,2,
94,94,94,2,2,2,2,2,2,2,5111,5112,94,94,2,2,
94,94,94,94,2,2,2,2,2,2,5199,5200,4935,4936,5023,5024,
94,94,94,94,2,2,2,2,2,2,5111,5112,5111,5112,5111,5112,
4935,4936,4935,5024,5023,5024,5023,5024,2,2,5199,5200,5199,5200,5199,5200,
5111,5112,5111,5112,5111,5112,5111,5112,2,2,5111,5112,5111,5112,5111,5112,
5199,5200,5199,5200,5199,5200,5199,5200,2,2,5199,5200,5199,5200,5199,5200,
5111,5112,5111,5112,5111,5112,5111,5112,2,2,5111,5112,5111,5112,5111,5112,
5287,5288,5287,5288,5287,5288,5287,5288,2,2,5287,5288,5287,5288,5287,5288,
0,0,0,0,0,0,0,0,0,0,0,0,0,0,0,0,
0,0,0,0,0,0,0,0,0,0,0,0,0,0,0,0,
0,0,0,0,0,0,0,0,0,0,0,0,0,0,0,0,
0,0,0,0,0,0,0,0,0,0,0,0,0,0,0,0,
0,0,0,0,0,0,0,0,0,0,0,0,0,0,0,0
</chunk>
   <chunk x="32" y="16" width="16" height="16">
5281,5283,0,0,0,0,0,0,0,0,0,0,0,0,0,0,
2,2,0,0,0,0,0,0,0,0,0,0,0,0,0,0,
5023,5024,0,0,0,0,0,0,0,0,0,0,0,0,0,0,
5111,5112,0,0,0,0,0,0,0,0,0,0,0,0,0,0,
5199,5200,0,0,0,0,0,0,0,0,0,0,0,0,0,0,
5111,5112,0,0,0,0,0,0,0,0,0,0,0,0,0,0,
5199,5200,0,0,0,0,0,0,0,0,0,0,0,0,0,0,
5111,5112,0,0,0,0,0,0,0,0,0,0,0,0,0,0,
5199,5200,0,0,0,0,0,0,0,0,0,0,0,0,0,0,
5111,5112,0,0,0,0,0,0,0,0,0,0,0,0,0,0,
5199,5200,0,0,0,0,0,0,0,0,0,0,0,0,0,0,
0,0,0,0,0,0,0,0,0,0,0,0,0,0,0,0,
0,0,0,0,0,0,0,0,0,0,0,0,0,0,0,0,
0,0,0,0,0,0,0,0,0,0,0,0,0,0,0,0,
0,0,0,0,0,0,0,0,0,0,0,0,0,0,0,0,
0,0,0,0,0,0,0,0,0,0,0,0,0,0,0,0
</chunk>
  </data>
 </layer>
 <objectgroup id="2" name="obstacles" visible="0">
  <object id="1" x="225" y="80.5" width="125.5" height="29.5"/>
  <object id="2" x="225" y="109.5" width="30" height="31.5"/>
  <object id="3" x="225" y="174.5" width="30" height="127.5"/>
  <object id="4" x="252.5" y="225.5" width="34" height="61"/>
  <object id="5" x="225.5" y="334.5" width="31.5" height="98.5"/>
  <object id="6" x="255" y="367" width="126.5" height="65.5"/>
  <object id="7" x="416.5" y="303.5" width="30.5" height="129"/>
  <object id="8" x="445.5" y="335" width="97.5" height="96.5"/>
  <object id="9" x="513.5" y="301.5" width="31" height="37"/>
  <object id="10" x="399.5" y="174" width="32" height="64"/>
  <object id="11" x="431" y="190.5" width="33" height="34"/>
  <object id="12" x="416" y="79" width="127.5" height="31.5"/>
  <object id="13" x="481" y="107.5" width="61.5" height="35.5"/>
  <object id="14" x="514" y="141" width="29" height="34.5"/>
  <object id="15" x="304.125" y="224.125" width="15.625" height="15.875"/>
 </objectgroup>
</map>
