<?xml version='1.0' encoding='UTF-8'?>
<map version="1.10" tiledversion="1.12.2" orientation="orthogonal" renderorder="right-down" width="64" height="32" tilewidth="16" tileheight="16" infinite="0" nextlayerid="3" nextobjectid="40">
 <tileset firstgid="1" source="tilesets/locations/full_map.tsx" />
 <layer id="1" name="walkable" width="64" height="32">
  <data encoding="csv">
0,0,0,0,0,0,0,0,0,0,0,0,0,0,0,0,0,0,0,0,0,0,0,0,0,0,0,0,0,0,0,0,0,0,0,0,0,0,0,0,0,0,0,0,0,0,0,0,0,0,0,0,0,0,0,0,0,0,0,0,0,0,0,0,
0,0,0,0,0,0,0,0,0,0,0,0,0,0,0,0,0,0,0,0,0,0,0,0,0,0,0,0,0,0,0,0,0,0,0,0,0,0,0,0,0,0,0,0,0,0,0,0,0,0,0,0,0,0,0,0,0,0,0,0,0,0,0,0,
0,0,0,0,0,0,0,0,0,0,0,0,0,0,0,0,0,0,0,0,0,0,0,0,0,0,0,0,0,0,0,0,0,0,0,0,0,0,0,0,0,0,0,0,0,0,0,0,0,0,0,0,0,0,0,0,0,0,0,0,0,0,0,0,
0,0,0,0,0,0,0,0,0,0,0,0,0,0,0,0,0,0,0,0,0,0,0,0,0,0,0,0,0,0,0,0,0,0,0,0,0,0,0,0,0,0,0,0,0,0,0,0,0,0,0,0,0,0,0,0,0,0,0,0,0,0,0,0,
0,0,0,0,0,0,0,0,0,0,0,0,0,0,0,0,0,0,0,0,0,0,0,0,0,0,0,0,0,0,0,0,0,0,0,0,0,0,0,0,0,0,0,0,0,0,0,0,0,0,0,0,0,0,0,0,0,0,0,0,0,0,0,0,
0,0,0,0,0,0,0,0,0,0,0,0,0,0,0,0,0,0,0,0,0,0,0,0,0,0,0,0,0,0,0,0,0,0,0,0,0,0,0,0,0,0,0,0,0,0,0,0,0,0,0,0,0,0,0,0,0,0,0,0,0,0,0,0,
0,0,0,0,0,0,0,0,0,370800,370801,370802,370803,370804,370805,370806,370807,370808,370809,370810,370811,370812,370813,370814,370815,370816,370817,370818,370819,370820,370821,370822,370823,370824,370825,370826,370827,370828,370829,370830,370831,370832,370833,370834,370835,370836,370837,370838,370839,370840,370841,370842,370843,370844,370845,370846,370847,370848,370849,0,0,0,0,0,
0,0,0,0,0,0,0,0,0,371824,371825,371826,371827,371828,371829,371830,371831,371832,371833,371834,371835,371836,371837,371838,371839,371840,371841,371842,371843,371844,371845,371846,371847,371848,371849,371850,371851,371852,371853,371854,371855,371856,371857,371858,371859,371860,371861,371862,371863,371864,371865,371866,371867,371868,371869,371870,371871,371872,371873,0,0,0,0,0,
0,0,0,0,0,0,0,0,0,372848,372849,372850,372851,372852,372853,372854,372855,372856,372857,372858,372859,372860,372861,372862,372863,372864,372865,372866,372867,372868,372869,372870,372871,372872,372873,372874,372875,372876,372877,372878,372879,372880,372881,372882,372883,372884,372885,372886,372887,372888,372889,372890,372891,372892,372893,372894,372895,372896,372897,0,0,0,0,0,
0,0,0,0,0,0,0,0,0,373872,373873,373874,373875,373876,373877,373878,373879,373880,373881,373882,373883,373884,373885,373886,373887,373888,373889,373890,373891,373892,373893,373894,373895,373896,373897,373898,373899,373900,373901,373902,373903,373904,373905,373906,373907,373908,373909,373910,373911,373912,373913,373914,373915,373916,373917,373918,373919,373920,373921,0,0,0,0,0,
0,0,0,0,0,0,0,0,0,374896,374897,374898,374899,374900,374901,374902,374903,374904,374905,374906,374907,374908,374909,374910,374911,374912,374913,374914,381084,381085,374917,374918,374919,374920,374921,374922,374923,374924,374925,374926,374927,374928,374929,374930,374931,374932,373910,373911,374935,374936,374937,374938,374939,374940,374941,374942,374943,374944,374945,0,0,0,0,0,
0,0,0,0,0,0,0,0,0,375920,375921,375922,375923,375924,375925,375926,375927,375928,375929,375930,375931,375932,375933,375934,375935,375936,375937,375938,375938,382109,375941,375942,375943,375944,375945,375946,375947,375948,375949,375950,375951,375952,375953,375954,375955,375956,376982,375959,375959,375960,375961,375962,375963,375964,375965,375966,375967,375968,375969,0,0,0,0,0,
0,0,0,0,0,0,0,0,0,376944,376945,376946,376947,376948,376949,376950,380035,380036,376953,376954,376955,376956,376957,376958,376959,376960,376961,376962,376963,376964,376965,376966,376967,376968,376969,376970,376971,376972,376973,376974,376975,376976,376977,376978,376979,376980,376981,376982,376983,376984,376985,376986,376987,376988,376989,376990,376991,376992,376993,0,0,0,0,0,
0,0,0,0,0,0,0,0,0,377968,377969,377970,377971,377972,377973,377974,381059,382084,378999,377978,377979,377980,377981,377982,377983,377984,377985,377986,377987,377988,377989,377990,377991,377992,377993,377994,377995,377996,377997,377998,377999,378000,378001,378002,378003,378004,378005,378006,378007,378008,378009,378010,378011,378012,378013,378014,378015,378016,378017,0,0,0,0,0,
0,0,0,0,0,0,0,0,0,378992,378993,378994,378995,378996,378997,378998,378999,377978,379002,379002,379003,379004,379005,379006,379007,379008,379009,379010,379011,379012,379013,379014,379015,379016,379017,379018,379019,379020,379021,379022,379023,379024,379025,379026,379027,379028,379029,379030,379031,379032,379033,379034,379035,379036,379037,379038,379039,379040,379041,0,0,0,0,0,
0,0,0,0,0,0,0,0,0,380016,380017,380018,380019,380020,380021,380022,380023,380024,380026,380026,380027,380028,380029,380030,380031,380032,380033,380034,380035,380036,380037,380038,380039,380040,380041,380042,380043,380044,380045,380046,380047,380048,380049,380050,380051,380052,380053,380054,380055,380056,380057,380058,380059,380060,380061,380062,380063,380064,380065,0,0,0,0,0,
0,0,0,0,0,0,0,0,0,381040,381041,381042,381043,381044,381045,381046,381047,381048,381049,381050,381051,381052,381053,381054,381055,381056,381057,381058,381059,381060,381061,381062,381063,381064,381065,381066,381067,381068,381069,381070,381071,381072,381073,381074,381075,381076,381077,381078,381079,381080,381081,381082,381083,381084,381085,381086,381087,381088,381089,0,0,0,0,0,
0,0,0,0,0,0,0,0,0,382064,382065,382066,382067,382068,382069,382070,382071,382072,382073,382074,382075,382076,382077,382078,382079,382080,382081,380035,380036,382084,382085,382086,382087,382088,382089,382090,382091,382092,382093,382094,382095,382096,382097,382098,382099,382100,382101,382102,382103,382104,382105,382106,382107,382108,382109,382110,382111,382112,382113,0,0,0,0,0,
0,0,0,0,0,0,0,0,0,383088,383089,383090,383091,383092,383093,383094,383095,383096,383097,383098,383099,383100,383101,383102,383103,383104,383105,381059,382084,383108,383109,383110,383111,383112,383113,383114,383115,383116,383117,383118,383119,383120,383121,383122,383123,383124,383125,383126,383127,383128,383129,383130,383131,383132,383133,383134,383135,383136,383137,0,0,0,0,0,
0,0,0,0,0,0,0,0,0,384112,384113,384114,384115,384116,384117,384118,384119,384120,384121,384122,384123,384124,384125,384126,384127,384128,384129,384130,384131,384132,384133,384134,384135,384136,384137,384138,384139,384140,384141,384142,384143,384144,384145,384146,384147,384148,384149,384150,384151,384152,384153,384154,384155,384156,384157,384158,384159,384160,384161,0,0,0,0,0,
0,0,0,0,0,0,0,0,0,385136,385137,385138,385139,385140,385141,385142,385143,385144,385145,385146,385147,385148,385149,385150,385151,385152,385153,385154,385155,385156,385157,385158,385159,385160,385161,385162,385163,385164,385165,385166,385167,387207,372859,372860,385171,385172,385173,385174,385175,385176,385177,385178,385179,385180,385181,385182,385183,385184,385185,0,0,0,0,0,
0,0,0,0,0,0,0,0,0,386160,386161,386162,386163,386164,386165,386166,386167,386168,386169,386170,386171,386172,386173,386174,386175,386176,386177,386178,386179,386180,386181,386182,386183,386184,382072,387212,386187,386188,386189,386190,386191,386192,387216,387217,386195,386196,386197,386198,386199,386200,386201,386202,386203,386204,386205,386206,386207,386208,386209,0,0,0,0,0,
0,0,0,0,0,0,0,0,0,387184,387185,387186,387187,387188,387189,387190,387191,387192,387193,387194,387195,387196,387197,387198,387199,387200,387201,387202,387203,387204,387205,387206,387207,387208,383096,389260,387211,387212,387213,387214,387215,387216,387217,387218,387219,387220,387221,387222,387223,387224,387225,387226,387227,387228,387229,387230,387231,387232,387233,0,0,0,0,0,
0,0,0,0,0,0,0,0,0,388208,388209,388210,388211,388212,388213,388214,388215,388216,388217,388218,388219,388220,388221,388222,388223,388224,388225,388226,388227,388228,388229,388230,388231,388232,388233,388234,388235,388236,388237,388238,388239,388240,388241,388242,388243,388244,388245,388246,388247,388248,388249,388250,388251,388252,388253,388254,388255,388256,388257,0,0,0,0,0,
0,0,0,0,0,0,0,0,0,389232,389233,389234,389235,389236,389237,389238,389239,389240,389241,389242,389243,389244,389245,389246,389247,389248,389249,389250,389251,389252,389253,389254,389255,389256,389257,389258,389259,389260,389261,389262,389263,389264,389265,389266,389267,389268,389269,389270,389271,389272,389273,389274,389275,389276,389277,389278,389279,389280,389281,0,0,0,0,0,
0,0,0,0,0,0,0,0,0,390256,390257,390258,390259,390260,390261,390262,390263,390264,390265,390266,390267,390268,390269,390270,390271,390272,390273,390274,390275,390276,390277,390278,390279,390280,390281,390282,390283,390284,390285,390286,390287,390288,390289,390290,390291,390292,390293,390294,390295,390296,390297,390298,390299,390300,390301,390302,390303,390304,390305,0,0,0,0,0,
0,0,0,0,0,0,0,0,0,391280,391281,391282,391283,391284,391285,391286,391287,391288,391289,391290,391291,391292,391293,391294,391295,391296,391297,391298,391299,391300,391301,391302,391303,391304,391305,391306,391307,391308,391309,391310,391311,391312,391313,391314,391315,391316,391317,391318,391319,391320,391321,391322,391323,391324,391325,391326,391327,391328,391329,0,0,0,0,0,
0,0,0,0,0,0,0,0,0,392304,392305,392306,392307,392308,392309,392310,392311,392312,392313,392314,392315,392316,392317,392318,392319,392320,392321,392322,392323,392324,392325,392326,392327,392328,392329,392330,392331,392332,392333,392334,392335,392336,392337,392338,392339,392340,392341,392342,392343,392344,392345,392346,392347,392348,392349,392350,392351,392352,392353,0,0,0,0,0,
0,0,0,0,0,0,0,0,0,393328,393329,393330,393331,393332,393333,393334,393335,393336,393337,393338,393339,393340,393341,393342,393343,393344,393345,393346,393347,393348,393349,393350,393351,393352,393353,393354,393355,393356,393357,393358,393359,393360,393361,393362,393363,393364,393365,393366,393367,393368,393369,393370,393371,393372,393373,393374,393375,393376,393377,0,0,0,0,0,
0,0,0,0,0,0,0,0,0,0,0,0,0,0,0,0,0,0,0,0,0,0,0,0,0,0,0,0,0,0,0,0,0,0,0,0,0,0,0,0,0,0,0,0,0,0,0,0,0,0,0,0,0,0,0,0,0,0,0,0,0,0,0,0,
0,0,0,0,0,0,0,0,0,0,0,0,0,0,0,0,0,0,0,0,0,0,0,0,0,0,0,0,0,0,0,0,0,0,0,0,0,0,0,0,0,0,0,0,0,0,0,0,0,0,0,0,0,0,0,0,0,0,0,0,0,0,0,0,
0,0,0,0,0,0,0,0,0,0,0,0,0,0,0,0,0,0,0,0,0,0,0,0,0,0,0,0,0,0,0,0,0,0,0,0,0,0,0,0,0,0,0,0,0,0,0,0,0,0,0,0,0,0,0,0,0,0,0,0,0,0,0,0
</data>
 </layer>
 <objectgroup id="2" name="obstacles" visible="0">
  <object id="1" x="144.5" y="96" width="40.5" height="106.5" />
  <object id="2" x="186" y="107" width="756.667" height="30.3333" />
  <object id="3" x="186" y="136.5" width="96" height="34.25" />
  <object id="4" x="426.25" y="140" width="14.75" height="15.75" />
  <object id="5" x="380.75" y="202.25" width="27.75" height="126.5" />
  <object id="6" x="348" y="235.25" width="33.75" height="93.5" />
  <object id="7" x="316.25" y="282" width="31.75" height="33.5" />
  <object id="8" x="348.75" y="328.5" width="92.5" height="127.75" />
  <object id="9" x="315" y="360.75" width="34" height="94.75" />
  <object id="10" x="143.75" y="264.5" width="105.5" height="191.75" />
  <object id="11" x="249.75" y="394.25" width="65.25" height="61.5" />
  <object id="12" x="250.5" y="264.5" width="31" height="35.75" />
  <object id="13" x="442" y="393" width="95" height="63.5" />
  <object id="14" x="538.25" y="427.5" width="407.25" height="27.75" />
  <object id="15" x="797.25" y="360.25" width="147.25" height="67" />
  <object id="16" x="860.75" y="329.5" width="83.75" height="30.75" />
  <object id="17" x="923.5" y="298.25" width="20.75" height="30.75" />
  <object id="18" x="667" y="392.5" width="129.25" height="34.5" />
  <object id="20" x="569.25" y="215.25" width="97" height="83.25" />
  <object id="24" x="634.75" y="207" width="29.75" height="8.5" />
  <object id="25" x="573.75" y="298.75" width="59.5" height="16.5" />
  <object id="26" x="664.5" y="233.25" width="33.5" height="99" />
  <object id="27" x="693" y="244.5" width="19.75" height="88" />
  <object id="29" x="704.75" y="264.25" width="21.25" height="67.75" />
  <object id="30" x="794.25" y="251.75" width="14.75" height="15.75" />
  <object id="34" x="857.3330000000001" y="137.667" width="85.3333" height="34.3333" />
  <object id="35" x="889.6669999999999" y="172.6667" width="55.6667" height="50.6667" />
  <object id="36" x="893.6669999999999" y="222.6667" width="49.6667" height="9.33333" />
  <object id="37" x="924" y="231.3333" width="20.6667" height="27.3333" />
  <object id="38" x="927" y="258.66667" width="17.6667" height="6.33333" />
 </objectgroup>
</map>