<?xml version="1.0" encoding="UTF-8"?>
<map version="1.10" tiledversion="1.12.2" orientation="orthogonal" renderorder="right-down" width="10" height="20" tilewidth="16" tileheight="16" infinite="1" nextlayerid="2" nextobjectid="1">
 <tileset firstgid="1" source="../tilesets/locations/littleroot_town.tsx"/>
 <layer id="1" name="Tile Layer 1" width="10" height="20">
  <data encoding="csv">
   <chunk x="-16" y="-16" width="16" height="16">
0,0,0,0,0,0,0,0,0,0,0,0,0,0,0,0,
0,0,0,0,0,0,0,0,0,0,0,0,0,0,0,0,
0,0,0,0,0,0,0,0,0,0,0,0,0,0,0,0,
0,0,0,0,0,0,0,0,0,0,0,0,0,0,0,0,
0,0,0,0,0,0,0,0,0,0,0,0,0,0,0,0,
0,0,0,0,0,0,0,0,0,0,0,0,0,0,0,0,
0,0,0,0,0,0,0,0,0,0,0,0,0,0,0,0,
0,0,0,0,0,0,0,0,0,0,0,0,0,0,0,0,
0,0,0,0,0,0,0,0,0,1401,1402,1403,1404,1405,1406,1407,
0,0,0,0,0,0,0,0,0,1458,1459,1460,1461,1462,1463,1464,
0,0,0,0,0,0,0,0,0,1515,1516,1517,1518,1519,1520,1521,
0,0,0,0,0,0,0,0,0,1572,1573,1574,1575,1576,1577,1578,
0,0,0,0,0,0,0,0,0,1629,1630,1631,1632,1633,1634,1635,
0,0,0,0,0,0,0,0,0,1686,1687,1688,1689,1690,1691,1692,
0,0,0,0,0,0,0,0,0,1743,1744,1745,1746,1747,1748,1749,
0,0,0,0,0,0,0,0,0,1800,1801,1802,1803,1804,1805,1806
</chunk>
   <chunk x="0" y="-16" width="16" height="16">
0,0,0,0,0,0,0,0,0,0,0,0,0,0,0,0,
0,0,0,0,0,0,0,0,0,0,0,0,0,0,0,0,
0,0,0,0,0,0,0,0,0,0,0,0,0,0,0,0,
0,0,0,0,0,0,0,0,0,0,0,0,0,0,0,0,
0,0,0,0,0,0,0,0,0,0,0,0,0,0,0,0,
0,0,0,0,0,0,0,0,0,0,0,0,0,0,0,0,
0,0,0,0,0,0,0,0,0,0,0,0,0,0,0,0,
0,0,0,0,0,0,0,0,0,0,0,0,0,0,0,0,
1408,1409,1410,1411,1412,1413,1414,0,0,0,0,0,0,0,0,0,
1465,1466,1467,1468,1469,1470,1471,0,0,0,0,0,0,0,0,0,
1522,1523,1524,1525,1526,1527,1528,0,0,0,0,0,0,0,0,0,
1579,1580,1581,1582,1583,1584,1585,0,0,0,0,0,0,0,0,0,
1636,1637,1638,1639,1640,1641,1642,0,0,0,0,0,0,0,0,0,
1693,1694,1695,1696,1697,1698,1699,0,0,0,0,0,0,0,0,0,
1750,1751,1752,1753,1754,1755,1756,0,0,0,0,0,0,0,0,0,
1807,1808,1809,1810,1811,1812,1813,0,0,0,0,0,0,0,0,0
</chunk>
   <chunk x="-16" y="0" width="16" height="16">
0,0,0,0,0,0,0,0,0,1857,1858,1859,1860,1861,1862,1863,
0,0,0,0,0,0,0,0,0,1914,1915,1916,1917,1918,1919,1920,
0,0,0,0,0,0,0,0,0,1971,1972,1973,1974,1975,1976,1977,
0,0,0,0,0,0,0,0,0,2028,2029,2030,2031,2032,2033,2034,
0,0,0,0,0,0,0,0,0,2085,2086,2087,2088,2089,2090,2091,
0,0,0,0,0,0,0,0,0,2142,2143,2144,2145,2146,2147,2148,
0,0,0,0,0,0,0,0,0,0,0,0,0,0,0,0,
0,0,0,0,0,0,0,0,0,0,0,0,0,0,0,0,
0,0,0,0,0,0,0,0,0,0,0,0,0,0,0,0,
0,0,0,0,0,0,0,0,0,0,0,0,0,0,0,0,
0,0,0,0,0,0,0,0,0,0,0,0,0,0,0,0,
0,0,0,0,0,0,0,0,0,0,0,0,0,0,0,0,
0,0,0,0,0,0,0,0,0,0,0,0,0,0,0,0,
0,0,0,0,0,0,0,0,0,0,0,0,0,0,0,0,
0,0,0,0,0,0,0,0,0,0,0,0,0,0,0,0,
0,0,0,0,0,0,0,0,0,0,0,0,0,0,0,0
</chunk>
   <chunk x="0" y="0" width="16" height="16">
1864,1865,1866,1867,1868,1869,1870,0,0,0,0,0,0,0,0,0,
1921,1922,1923,1924,1925,1926,1927,0,0,0,0,0,0,0,0,0,
1978,1979,1980,1981,1982,1983,1984,0,0,0,0,0,0,0,0,0,
2035,2036,2037,2038,2039,2040,2041,0,0,0,0,0,0,0,0,0,
2092,2093,2094,2095,2096,2097,2098,0,0,0,0,0,0,0,0,0,
2149,2150,2151,2152,2153,2154,2155,0,0,0,0,0,0,0,0,0,
0,0,0,0,0,0,0,0,0,0,0,0,0,0,0,0,
0,0,0,0,0,0,0,0,0,0,0,0,0,0,0,0,
0,0,0,0,0,0,0,0,0,0,0,0,0,0,0,0,
0,0,0,0,0,0,0,0,0,0,0,0,0,0,0,0,
0,0,0,0,0,0,0,0,0,0,0,0,0,0,0,0,
0,0,0,0,0,0,0,0,0,0,0,0,0,0,0,0,
0,0,0,0,0,0,0,0,0,0,0,0,0,0,0,0,
0,0,0,0,0,0,0,0,0,0,0,0,0,0,0,0,
0,0,0,0,0,0,0,0,0,0,0,0,0,0,0,0,
0,0,0,0,0,0,0,0,0,0,0,0,0,0,0,0
</chunk>
  </data>
 </layer>
</map>
