<?xml version="1.0" encoding="UTF-8"?>
<map version="1.10" tiledversion="1.12.2" orientation="orthogonal" renderorder="right-down" width="10" height="20" tilewidth="16" tileheight="16" infinite="1" nextlayerid="3" nextobjectid="34">
 <tileset firstgid="1" source="full_map.tsx"/>
 <layer id="1" name="Tile Layer 1" width="10" height="20">
  <data encoding="csv">
   <chunk x="-16" y="-32" width="16" height="16">
0,0,0,0,0,0,0,0,0,0,0,0,0,0,0,0,
0,0,0,0,0,0,0,0,0,0,0,0,0,0,0,0,
0,0,0,0,0,0,0,0,0,0,0,0,0,0,0,0,
0,0,0,0,0,0,0,0,0,0,0,0,0,0,0,0,
0,0,0,0,0,0,0,0,0,0,0,0,0,0,0,0,
0,0,0,0,0,0,0,0,0,0,0,0,0,0,0,0,
0,0,0,0,0,0,0,0,0,0,0,0,0,0,0,0,
0,0,0,0,0,0,0,0,0,0,0,0,0,0,0,0,
0,0,0,0,0,0,0,0,0,0,0,0,0,0,0,0,
0,0,0,0,0,0,0,0,0,0,0,0,0,0,0,0,
0,0,0,0,0,0,0,0,0,0,0,0,0,0,0,0,
0,0,0,0,0,0,0,0,0,0,0,0,0,0,0,0,
0,0,0,0,360531,360532,360533,360534,360535,360536,360537,360538,360539,360540,360541,360542,
0,0,0,0,361555,361556,361557,361558,361559,361560,361561,361562,361563,361564,361565,361566,
0,0,0,0,362579,362580,362581,362582,362583,362584,362585,362586,362587,362588,362589,362590,
0,0,0,0,363603,363604,363605,363606,363607,363608,363609,363610,363611,363612,363613,363614
</chunk>
   <chunk x="0" y="-32" width="16" height="16">
0,0,0,0,0,0,0,0,0,0,0,0,0,0,0,0,
0,0,0,0,0,0,0,0,0,0,0,0,0,0,0,0,
0,0,0,0,0,0,0,0,0,0,0,0,0,0,0,0,
0,0,0,0,0,0,0,0,0,0,0,0,0,0,0,0,
0,0,0,0,0,0,0,0,0,0,0,0,0,0,0,0,
0,0,0,0,0,0,0,0,0,0,0,0,0,0,0,0,
0,0,0,0,0,0,0,0,0,0,0,0,0,0,0,0,
0,0,0,0,0,0,0,0,0,0,0,0,0,0,0,0,
0,0,0,0,0,0,0,0,0,0,0,0,0,0,0,0,
0,0,0,0,0,0,0,0,0,0,0,0,0,0,0,0,
0,0,0,0,0,0,0,0,0,0,0,0,0,0,0,0,
0,0,0,0,0,0,0,0,0,0,0,0,0,0,0,0,
360543,360544,360545,360546,360547,360548,360549,360550,360551,360552,360553,360554,360555,360556,360557,360558,
361567,361568,361569,361570,361571,361572,361573,361574,361575,361576,361577,361578,361579,361580,361581,361582,
362591,362592,362593,362594,362595,362596,362597,362598,362599,362600,362601,362602,362603,362604,362605,362606,
363615,363616,363617,363618,363619,363620,363621,363622,363623,363624,363625,363626,363627,363628,363629,363630
</chunk>
   <chunk x="16" y="-32" width="16" height="16">
0,0,0,0,0,0,0,0,0,0,0,0,0,0,0,0,
0,0,0,0,0,0,0,0,0,0,0,0,0,0,0,0,
0,0,0,0,0,0,0,0,0,0,0,0,0,0,0,0,
0,0,0,0,0,0,0,0,0,0,0,0,0,0,0,0,
0,0,0,0,0,0,0,0,0,0,0,0,0,0,0,0,
0,0,0,0,0,0,0,0,0,0,0,0,0,0,0,0,
0,0,0,0,0,0,0,0,0,0,0,0,0,0,0,0,
0,0,0,0,0,0,0,0,0,0,0,0,0,0,0,0,
0,0,0,0,0,0,0,0,0,0,0,0,0,0,0,0,
0,0,0,0,0,0,0,0,0,0,0,0,0,0,0,0,
0,0,0,0,0,0,0,0,0,0,0,0,0,0,0,0,
0,0,0,0,0,0,0,0,0,0,0,0,0,0,0,0,
360559,0,0,0,0,0,0,0,0,0,0,0,0,0,0,0,
361583,0,0,0,0,0,0,0,0,0,0,0,0,0,0,0,
362607,0,0,0,0,0,0,0,0,0,0,0,0,0,0,0,
363631,0,0,0,0,0,0,0,0,0,0,0,0,0,0,0
</chunk>
   <chunk x="-16" y="-16" width="16" height="16">
0,0,0,0,364627,364628,364629,364630,364631,364632,364633,364634,364635,364636,364637,364638,
0,0,0,0,365651,365652,365653,365654,365655,365656,365657,365658,365659,365660,365661,365662,
0,0,0,0,366675,366676,366677,366678,366679,366680,366681,366682,366683,366684,366685,366686,
0,0,0,0,367699,367700,367701,367702,367703,367704,367705,367706,367707,367708,367709,367710,
0,0,0,0,368723,368724,368725,368726,368727,368728,368729,368730,368731,368732,368733,368734,
0,0,0,0,369747,369748,369749,369750,369751,369752,369753,369754,369755,369756,369757,369758,
0,0,0,0,370771,370772,370773,370774,370775,370776,370777,370778,370779,370780,370781,370782,
0,0,0,0,371795,371796,371797,371798,371799,371800,371801,371802,371803,371804,371805,371806,
0,0,0,0,372819,372820,372821,372822,372823,372824,372825,372826,372827,372828,372829,372830,
0,0,0,0,373843,373844,373845,373846,373847,373848,373849,373850,373851,373852,373853,373854,
0,0,0,0,374867,374868,374869,374870,374871,374872,374873,374874,374875,374876,374877,374878,
0,0,0,0,375891,375892,375893,375894,375895,375896,375897,375898,375899,375900,375904,375904,
0,0,0,0,376915,376916,376917,376918,376919,376920,376921,376922,376923,376924,376924,376925,
0,0,0,0,377939,377940,377941,377942,377943,377944,377945,377946,377947,377948,377949,377950,
0,0,0,0,378963,378964,378965,378966,378967,378968,378969,378970,378971,378972,378973,378974,
0,0,0,0,379987,379988,379989,379990,379991,379992,379993,379994,379995,379996,379997,379998
</chunk>
   <chunk x="0" y="-16" width="16" height="16">
364639,364640,364641,364642,364643,364644,364645,364646,364647,364648,364649,364650,364651,364652,364653,364654,
365663,365664,365665,365666,365667,365668,365669,365670,365671,365672,365673,365674,365675,365676,365677,365678,
366687,366688,366689,366690,366691,366692,366693,366694,366695,366696,366697,366698,366699,366700,366701,366702,
367711,367712,367713,367714,367715,367716,367717,367718,367719,367720,367721,367722,367723,367724,367725,367726,
368735,368736,368737,368738,368739,368740,368741,368742,368743,368744,368745,368746,368747,368748,368749,368750,
369759,369760,369761,369762,369763,369764,369765,369766,369767,369768,369769,369770,369771,369772,369773,369774,
370783,370784,370785,370786,370787,370788,370789,375904,375904,370792,370793,370794,370795,370796,370797,370798,
371807,371808,371809,371810,371811,371812,371813,375904,375904,371816,371817,371818,371819,371820,371821,371822,
372831,372832,372833,372834,372835,372836,372837,372838,372839,372840,372841,372842,372843,372844,372845,372846,
373855,373856,373857,373858,373859,373860,373861,373862,373863,373864,373865,373866,373867,373868,373869,373870,
374879,374880,374881,374882,374883,374884,374885,374886,374887,374888,374889,374890,374891,374892,374893,374894,
375904,375904,375905,375906,375907,375908,375909,375910,375911,375912,375913,375914,375915,375916,375917,375918,
269548,376928,376929,376930,376931,376932,376933,376934,376935,376936,376937,376938,376939,376940,376941,376942,
377951,377952,377953,377954,377955,377956,377957,377958,377959,377960,377961,377962,377963,377964,377965,377966,
378975,378976,378977,376930,376930,378980,378981,378982,378983,378984,378985,378986,378987,378988,378989,378990,
379999,380000,380001,376930,335926,380004,380005,380006,380007,380008,380009,380010,380011,380012,380013,380014
</chunk>
   <chunk x="16" y="-16" width="16" height="16">
364655,0,0,0,0,0,0,0,0,0,0,0,0,0,0,0,
365679,0,0,0,0,0,0,0,0,0,0,0,0,0,0,0,
366703,0,0,0,0,0,0,0,0,0,0,0,0,0,0,0,
367727,0,0,0,0,0,0,0,0,0,0,0,0,0,0,0,
368751,0,0,0,0,0,0,0,0,0,0,0,0,0,0,0,
369775,0,0,0,0,0,0,0,0,0,0,0,0,0,0,0,
370799,0,0,0,0,0,0,0,0,0,0,0,0,0,0,0,
371823,0,0,0,0,0,0,0,0,0,0,0,0,0,0,0,
372847,0,0,0,0,0,0,0,0,0,0,0,0,0,0,0,
373871,0,0,0,0,0,0,0,0,0,0,0,0,0,0,0,
374895,0,0,0,0,0,0,0,0,0,0,0,0,0,0,0,
375919,0,0,0,0,0,0,0,0,0,0,0,0,0,0,0,
376943,0,0,0,0,0,0,0,0,0,0,0,0,0,0,0,
377967,0,0,0,0,0,0,0,0,0,0,0,0,0,0,0,
378991,0,0,0,0,0,0,0,0,0,0,0,0,0,0,0,
380015,0,0,0,0,0,0,0,0,0,0,0,0,0,0,0
</chunk>
   <chunk x="-16" y="0" width="16" height="16">
0,0,0,0,381011,381012,381013,381014,381015,381016,381017,381018,381019,381020,381021,381022,
0,0,0,0,382035,382036,382037,382038,382039,382040,382041,382042,382043,382044,382045,382046,
0,0,0,0,383059,383060,383061,383062,383063,383064,383065,375904,375904,383068,383069,383070,
0,0,0,0,384083,384084,384085,384086,384087,384088,384089,384092,384093,384092,384093,384094,
0,0,0,0,385107,385108,385109,385110,385111,385112,385113,385114,385115,385116,385117,385118,
0,0,0,0,386131,386132,386133,386134,386135,386136,386137,386138,386139,386140,386141,386142,
0,0,0,0,387155,387156,387157,387158,387159,387160,387161,387162,387163,387164,387165,387166,
0,0,0,0,388179,388180,388181,388182,388183,388184,388185,388186,388187,388188,388189,388190,
0,0,0,0,389203,389204,389205,389206,389207,389208,389209,389210,389211,389212,389213,389214,
0,0,0,0,390227,390228,390229,390230,390231,390232,390233,390234,390235,390236,390237,390238,
0,0,0,0,391251,391252,391253,391254,391255,391256,391257,391258,391259,391260,391261,391262,
0,0,0,0,392275,392276,392277,392278,392279,392280,392281,392282,392283,392284,392285,392286,
0,0,0,0,393299,393300,393301,393302,393303,393304,393305,393306,393307,393308,393309,393310,
0,0,0,0,394323,394324,394325,394326,394327,394328,394329,394330,394331,394332,394333,394334,
0,0,0,0,0,0,0,0,0,0,0,0,0,0,0,0,
0,0,0,0,0,0,0,0,0,0,0,0,0,0,0,0
</chunk>
   <chunk x="0" y="0" width="16" height="16">
381023,381024,381025,381026,381027,381028,381029,381030,381031,381032,381033,381034,381035,381036,381037,381038,
382047,382048,382049,382050,382051,382052,382053,382054,382055,382056,382057,382058,382059,382060,382061,382062,
383071,383072,383073,383074,383075,383076,383077,383078,383079,383080,383081,383082,383083,383084,383085,383086,
384095,384096,384097,384098,384099,384100,384101,384102,384103,384104,384105,384106,384107,384108,384109,384110,
385119,385120,385121,385122,385123,385124,385125,385126,385127,385128,385129,385130,385131,385132,385133,385134,
386143,386144,386145,386146,386147,386148,386149,386150,386151,386152,386153,386154,386155,386156,386157,386158,
387167,387168,387169,387170,387171,387172,387173,387174,387175,387176,387177,387178,387179,387180,387181,387182,
388191,388192,388193,388194,388195,388196,388197,388198,388199,388200,388201,388202,388203,388204,388205,388206,
389215,389216,389217,389218,389219,389220,389221,389222,389223,389224,389225,389226,389227,389228,389229,389230,
390239,390240,390241,390242,390243,390244,390245,390246,390247,390248,390249,390250,390251,390252,390253,390254,
391263,391264,391265,391266,391267,391268,391269,391270,391271,391272,391273,391274,391275,391276,391277,391278,
392287,392288,392289,392290,392291,392292,392293,392294,392295,392296,392297,392298,392299,392300,392301,392302,
393311,393312,393313,393314,393315,393316,393317,393318,393319,393320,393321,393322,393323,393324,393325,393326,
394335,394336,394337,394338,394339,394340,394341,394342,394343,394344,394345,394346,394347,394348,394349,394350,
0,0,0,0,0,0,0,0,0,0,0,0,0,0,0,0,
0,0,0,0,0,0,0,0,0,0,0,0,0,0,0,0
</chunk>
   <chunk x="16" y="0" width="16" height="16">
381039,0,0,0,0,0,0,0,0,0,0,0,0,0,0,0,
382063,0,0,0,0,0,0,0,0,0,0,0,0,0,0,0,
383087,0,0,0,0,0,0,0,0,0,0,0,0,0,0,0,
384111,0,0,0,0,0,0,0,0,0,0,0,0,0,0,0,
385135,0,0,0,0,0,0,0,0,0,0,0,0,0,0,0,
386159,0,0,0,0,0,0,0,0,0,0,0,0,0,0,0,
387183,0,0,0,0,0,0,0,0,0,0,0,0,0,0,0,
388207,0,0,0,0,0,0,0,0,0,0,0,0,0,0,0,
389231,0,0,0,0,0,0,0,0,0,0,0,0,0,0,0,
390255,0,0,0,0,0,0,0,0,0,0,0,0,0,0,0,
391279,0,0,0,0,0,0,0,0,0,0,0,0,0,0,0,
392303,0,0,0,0,0,0,0,0,0,0,0,0,0,0,0,
393327,0,0,0,0,0,0,0,0,0,0,0,0,0,0,0,
394351,0,0,0,0,0,0,0,0,0,0,0,0,0,0,0,
0,0,0,0,0,0,0,0,0,0,0,0,0,0,0,0,
0,0,0,0,0,0,0,0,0,0,0,0,0,0,0,0
</chunk>
  </data>
 </layer>
 <objectgroup id="2" name="obstacles">
  <properties>
   <property name="isCollision" type="bool" value="true"/>
  </properties>
  <object id="3" x="226" y="7.5" width="45" height="192"/>
  <object id="4" x="92.5" y="21.5" width="77.5" height="51.5"/>
  <object id="5" x="171.5" y="22.5" width="52.5" height="15.5"/>
  <object id="6" x="201.5" y="38" width="23" height="83"/>
  <object id="7" x="19" y="139.5" width="207" height="58.5"/>
  <object id="8" x="-3.5" y="72.5" width="24.5" height="127.5"/>
  <object id="9" x="-114.5" y="142" width="86.5" height="57.5"/>
  <object id="10" x="-27" y="169.5" width="22.5" height="30"/>
  <object id="11" x="-191" y="-86" width="25" height="285.5"/>
  <object id="12" x="-165.5" y="169.5" width="52" height="29.5"/>
  <object id="13" x="-52" y="-51.5" width="61.5" height="64"/>
  <object id="14" x="109" y="73" width="58.5" height="18"/>
  <object id="15" x="103.5" y="-102" width="69.5" height="66"/>
  <object id="16" x="187" y="-156.5" width="62" height="56"/>
  <object id="17" x="250.5" y="-309.5" width="20.5" height="253.5"/>
  <object id="19" x="217" y="-309.5" width="32" height="151"/>
  <object id="20" x="-192" y="-309.5" width="406" height="32.5"/>
  <object id="21" x="-191.5" y="-278" width="297.5" height="34.5"/>
  <object id="22" x="75" y="-155" width="15.5" height="22.5"/>
  <object id="23" x="75" y="-51" width="14" height="15"/>
  <object id="24" x="-133.5" y="-242.5" width="13" height="10"/>
  <object id="25" x="-191.5" y="-243" width="51.5" height="93.5"/>
  <object id="26" x="-191" y="-151" width="25" height="34.5"/>
  <object id="27" x="-37" y="-243" width="30" height="92"/>
  <object id="28" x="-52.5" y="-168.5" width="18" height="17.5"/>
  <object id="29" x="-5.5" y="-242" width="93" height="70.5"/>
  <object id="30" x="36" y="-172" width="28" height="7.5"/>
  <object id="31" x="-70.5" y="-163" width="15.5" height="14"/>
  <object id="32" x="-84.5" y="-83" width="33.5" height="94.5"/>
  <object id="33" x="89.5" y="-242.5" width="16" height="92.5"/>
 </objectgroup>
</map>
